src/assets/logos/voidzero.svg

<svg width="494" height="250" viewBox="0 0 494 250" fill="none" xmlns="http://www.w3.org/2000/svg">
<path d="M50.5955 215.69L71.6711 250H61.3783L40.3027 215.69H50.5955ZM94.4131 215.69L73.3375 250H63.0448L84.1204 215.69H94.4131ZM62.9467 242.157H72.7493V250H62.9467V242.157Z" fill="#FF4D00"/>
<path d="M95.2145 231.865C95.2145 221.082 100.606 215.69 111.389 215.69H134.915C145.698 215.69 151.089 221.082 151.089 231.865V233.825C151.089 244.608 145.698 250 134.915 250H111.389C100.606 250 95.2145 244.608 95.2145 233.825V231.865ZM112.369 224.023C107.141 224.023 104.527 226.637 104.527 231.865V233.825C104.527 239.053 107.141 241.667 112.369 241.667H133.935C139.163 241.667 141.777 239.053 141.777 233.825V231.865C141.777 226.637 139.163 224.023 133.935 224.023H112.369Z" fill="#FF4D00"/>
<path d="M154.53 215.69H163.842V250H154.53V215.69Z" fill="#FF4D00"/>
<path d="M167.273 215.69H176.586V250H167.273V215.69ZM176.586 215.69H205.209C216.515 215.69 222.168 221.082 222.168 231.865V233.825C222.168 244.608 216.515 250 205.209 250H176.586V241.667H204.523C210.078 241.667 212.855 239.053 212.855 233.825V231.865C212.855 226.637 210.078 224.023 204.523 224.023H176.586V215.69Z" fill="#FF4D00"/>
<path d="M268.225 224.023H287.34L257.442 241.667H238.327L268.225 224.023ZM287.34 215.69V224.023H238.327V215.69H287.34ZM287.34 241.667V250H238.327V241.667H287.34Z" fill="#FF4D00"/>
<path d="M290.75 215.69H300.062V250H290.75V215.69ZM338.292 215.69V224.023H290.75V215.69H338.292ZM338.292 241.667V250H290.75V241.667H338.292ZM336.332 229.414V236.276H290.75V229.414H336.332Z" fill="#FF4D00"/>
<path d="M351.049 215.69V250H341.737V215.69H351.049ZM380.457 230.884C383.724 230.884 385.358 229.724 385.358 227.405C385.358 225.15 383.724 224.023 380.457 224.023H351.049V215.69H380.653C385.227 215.69 388.707 216.703 391.093 218.729C393.478 220.722 394.671 223.647 394.671 227.503C394.671 231.358 393.478 234.283 391.093 236.276C388.74 238.236 385.26 239.217 380.653 239.217H351.049V230.884H380.457ZM367.713 232.845H379.967L394.671 250H382.417L367.713 232.845Z" fill="#FF4D00"/>
<path d="M398.084 231.865C398.084 221.082 403.476 215.69 414.259 215.69H437.785C448.568 215.69 453.959 221.082 453.959 231.865V233.825C453.959 244.608 448.568 250 437.785 250H414.259C403.476 250 398.084 244.608 398.084 233.825V231.865ZM415.239 224.023C410.011 224.023 407.397 226.637 407.397 231.865V233.825C407.397 239.053 410.011 241.667 415.239 241.667H436.805C442.033 241.667 444.647 239.053 444.647 233.825V231.865C444.647 226.637 442.033 224.023 436.805 224.023H415.239Z" fill="#FF4D00"/>
<path d="M104.508 115.961H110.52L117.108 0H178.281C164.708 4.16105 153.44 10.6384 144.672 19.6177L144.647 19.6428C127.989 36.9095 120.256 63.3914 120.256 97.8087C120.256 132.269 128.099 159.049 144.856 177.018L144.879 177.04C152.094 184.69 160.996 190.588 171.473 194.843L170.936 197.849H36.6489L0 0H97.065L104.508 115.961Z" fill="#FF4D00"/>
<path fill-rule="evenodd" clip-rule="evenodd" d="M395.209 0C427.086 0 451.424 7.63568 468.222 22.9059C485.21 38.1764 493.706 63.0862 493.706 97.6354C493.706 164.444 459.538 197.849 391.203 197.849H340.523V0H395.209ZM397.738 132.855H405.757C408.047 132.855 409.957 132.089 411.484 130.563C413.201 129.036 414.059 127.032 414.059 124.551V91.3385C414.059 89.0484 413.201 87.1389 411.484 85.612C409.957 84.0852 408.047 83.3194 405.757 83.3192H397.738V132.855Z" fill="#FF4D00"/>
<path d="M334.796 197.849H229.203C243.42 193.56 255.144 186.685 264.155 177.015L264.152 177.012C280.908 159.043 288.755 132.268 288.755 97.8087C288.755 63.3914 281.022 36.9095 264.364 19.6428C255.686 10.6472 244.479 4.16353 230.942 0H334.796V197.849Z" fill="#FF4D00"/>
<path d="M205.282 83.5896C207.69 83.5896 209.635 84.3307 211.117 85.8125C212.784 87.2944 213.617 89.1471 213.617 91.3699V123.603C213.617 126.011 212.784 127.956 211.117 129.438C209.635 130.92 207.69 131.661 205.282 131.661C203.059 131.661 201.206 130.92 199.724 129.438C198.427 127.956 197.779 126.011 197.779 123.603V91.3699C197.779 89.1471 198.427 87.2944 199.724 85.8125C201.206 84.3307 203.059 83.5896 205.282 83.5896Z" fill="#FF4D00"/>
</svg>

<svg width="494" height="250" fill="none" xmlns="http://www.w3.org/2000/svg"><path d="M50.596 215.69L71.67 250H61.378l-21.075-34.31h10.293zm43.817 0L73.338 250H63.045l21.075-34.31h10.293zm-31.466 26.467h9.802V250h-9.802v-7.843zM95.215 231.865c0-10.783 5.391-16.175 16.174-16.175h23.526c10.783 0 16.174 5.392 16.174 16.175v1.96c0 10.783-5.391 16.175-16.174 16.175h-23.526c-10.783 0-16.174-5.392-16.174-16.175v-1.96zm17.154-7.842c-5.228 0-7.842 2.614-7.842 7.842v1.96c0 5.228 2.614 7.842 7.842 7.842h21.566c5.228 0 7.842-2.614 7.842-7.842v-1.96c0-5.228-2.614-7.842-7.842-7.842h-21.566zM154.53 215.69h9.312V250h-9.312v-34.31zM167.273 215.69h9.313V250h-9.313v-34.31zm9.313 0h28.623c11.306 0 16.959 5.392 16.959 16.175v1.96c0 10.783-5.653 16.175-16.959 16.175h-28.623v-8.333h27.937c5.555 0 8.332-2.614 8.332-7.842v-1.96c0-5.228-2.777-7.842-8.332-7.842h-27.937v-8.333zM268.225 224.023h19.115l-29.898 17.644h-19.115l29.898-17.644zm19.115-8.333v8.333h-49.013v-8.333h49.013zm0 25.977V250h-49.013v-8.333h49.013zM290.75 215.69h9.312V250h-9.312v-34.31zm47.542 0v8.333H290.75v-8.333h47.542zm0 25.977V250H290.75v-8.333h47.542zm-1.96-12.253v6.862H290.75v-6.862h45.582zM351.049 215.69V250h-9.312v-34.31h9.312zm29.408 15.194c3.267 0 4.901-1.16 4.901-3.479 0-2.255-1.634-3.382-4.901-3.382h-29.408v-8.333h29.604c4.574 0 8.054 1.013 10.44 3.039 2.385 1.993 3.578 4.918 3.578 8.774 0 3.855-1.193 6.78-3.578 8.773-2.353 1.96-5.833 2.941-10.44 2.941h-29.604v-8.333h29.408zm-12.744 1.961h12.254L394.671 250h-12.254l-14.704-17.155zM398.084 231.865c0-10.783 5.392-16.175 16.175-16.175h23.526c10.783 0 16.174 5.392 16.174 16.175v1.96c0 10.783-5.391 16.175-16.174 16.175h-23.526c-10.783 0-16.175-5.392-16.175-16.175v-1.96zm17.155-7.842c-5.228 0-7.842 2.614-7.842 7.842v1.96c0 5.228 2.614 7.842 7.842 7.842h21.566c5.228 0 7.842-2.614 7.842-7.842v-1.96c0-5.228-2.614-7.842-7.842-7.842h-21.566zM104.508 115.961h6.012L117.108 0h61.173c-13.573 4.161-24.841 10.638-33.609 19.618l-.025.025c-16.658 17.267-24.391 43.748-24.391 78.166 0 34.46 7.843 61.24 24.6 79.209l.023.022c7.215 7.65 16.117 13.548 26.594 17.803l-.537 3.006H36.649L0 0h97.065l7.443 115.961z" fill="#FF4D00"/><path fill-rule="evenodd" clip-rule="evenodd" d="M395.209 0c31.877 0 56.215 7.636 73.013 22.906 16.988 15.27 25.484 40.18 25.484 74.73 0 66.808-34.168 100.213-102.503 100.213h-50.68V0h54.686zm2.529 132.855h8.019c2.29 0 4.2-.766 5.727-2.292 1.717-1.527 2.575-3.531 2.575-6.012V91.338c0-2.29-.858-4.2-2.575-5.726-1.527-1.527-3.437-2.293-5.727-2.293h-8.019v49.536z" fill="#FF4D00"/><path d="M334.796 197.849H229.203c14.217-4.289 25.941-11.164 34.952-20.834l-.003-.003c16.756-17.969 24.603-44.744 24.603-79.203 0-34.418-7.733-60.9-24.391-78.166-8.678-8.996-19.885-15.48-33.422-19.643h103.854v197.849zM205.282 83.59c2.408 0 4.353.74 5.835 2.222 1.667 1.482 2.5 3.335 2.5 5.558v32.233c0 2.408-.833 4.353-2.5 5.835-1.482 1.482-3.427 2.223-5.835 2.223-2.223 0-4.076-.741-5.558-2.223-1.297-1.482-1.945-3.427-1.945-5.835V91.37c0-2.223.648-4.076 1.945-5.558 1.482-1.481 3.335-2.222 5.558-2.222z" fill="#FF4D00"/></svg>
